X:1
T:Cedars of Lebanon
T:Cedars of Lebanon
T:Steve Barakatt
T:Transcript: Phosphorus15 
%%score { 1 | 2 }
L:1/8
Q:1/4=70
M:4/4
K:F
V:1 treble nm="Piano" snm="Pno."
V:2 bass 
V:1
 (A2 A/)B/A f3 A | [EG]8 | (G2 G/)A/G e3 G | F8 | ([DF]2 [DF]/)G/F d3 F | [B,E]4 EFGB | %6
 ([EA]4 [EA])B^cB | [EA]8 | ([DFA]2 [DFA]/)B/A f3 A | [CEG]8 | ([CEG]2 [CEG]/)A/G e3 G | [CF]8 | %12
 ([A,DF]2 [A,DF]/)G/F d3 F | [B,E]4 EFGB | ([EA]4 [EA])B^cB | [EA]6 A2 |: (a2 a/)b/a [DFd]3 d | %17
 [Gcg]4 [CEc]3 c | !arpeggio![FBf]3/2g3/2f B3/2c3/2d | [FAe]3 (A [FA]3) A | Addf faad' | %21
 d'e' c'2 c3 c' | c'd'ba [Bd]2 f2 |1 [Bg]4 [^ca]3 A :|2 [Bg]4 [^ca]4 |] (A2 A/)B/A f3 A | [EG]8 | %27
 ([^CEG]2 [CEG]/)A/G e3 G | [DF]8 | (F2 F/)G/F [FBd]3 F | [B,E]4 EFGB | A4 EB^cB | [^CA]8 | %33
 ([DFA]2 [DFA]/)B/A f3 A | [CEG]8 | ([B,^CEG]2 [B,^CEG]/)A/G e3 G | [=B,DF]8 | %37
 ([A,DF]2 [A,DF]/)G/F d3 F | [B,E]4 EFGB | ([EA]4 [EA])B^cB | [EA]6 A2 |: (a2 a/)b/a [DFd]3 d | %42
 [Gcg]4 [CEc]3 c | !arpeggio![FBf]3/2g3/2f B3/2c3/2d | [FAe]3 (A [FA]3) A | Addf faad' | %46
 d'e' c'2 c3 c' | c'd'ba [Bd]2 f2 |1 [Bg]4 [^ca]3 A :|2 [Bg]4 [^ca]4 |]!8va(! (a2 a/)b/a f'3 a | %51
 g8 | (g2 g/)a/g e'3 g | f8 | ([df]2 [df]/)g/f d'3 f | [Be]4 z fgb | (a4 a)b^c'b | [^ca]8!8va)! | %58
 (A2 A/)B/A [df]3 A | [CG]8 | ([^CEG]2 [CEG]/)A/G e3 G | [DF]8 | ([A,DF]2 [A,DF]/)G/F d3 F | %63
 [B,DE]4 EF[EG]B | A4 z B^cB | (A2 A/)B/A [EGf]3 [^CEGe]- | %66
 [CEGe]4{!fermata!F!fermata!=C!fermata!A,} !fermata!F, z z2 |] %67
V:2
 D,A,DA, F4 | ^C,G,A,^C EA,CG, | ^C,G,A,^C E2 C2 | F,,C,A,C FF,A,F, | [B,,A,]F,A,B, DF, B,2 | %5
 G,,E,G,(B, B,4) | A,,E,G,E, E4 | A,,E,G,A, ^C4 | B,,F,A,^A, D2 A,2 | B,,G,B,C EB,CG, | %10
 A,,E,A,C E2 C2 | D,,A,,F,G, C2 G,F, | B,,F,A,B, D2 B,2 | B,E,G,(B, B,4) | A,,E,G,A, E4 | %15
 A,,E,G,A, ^C4 |: B,,F,A,B, D4 | A,,E,A,=B, C4 | G,,D, B,2 [CDF]4 | F,,C,F,G, A,4 | %20
 B,,F,A,B, [DA]2 F2 | A,,E,=B,C E4 | G,,D,B,D F2 D2 |1 A,,G,=B,D [A,^CE]4 :|2 A,,G,=B,D [A,^CE]4 |] %25
 D,,A,,F,A, D2 A,2 | E,,C,G,C EG,CG, | A,,E,G,A, ^C2 A,2 | F,,D,F,A, DF,A,F, | B,,F,A,B, D4 | %30
 A,,E,G,(B, B,4) | A,,E,G,(A, A,4) | A,,E,G,A, ^C4 | A,,D,F,A, D2 A,2 | A,,B,,^C,E, G,B,^CE | %35
 A,,B,, ^C,2 E,2 C,2 | B,,=B,,D,F, G,=B,DG, | B,,F,A,B, D2 B,2 | B,E,G,(B, B,4) | A,,E,G,A, E4 | %40
 A,,E,G,A, ^C4 |: B,,F,A,B, D4 | A,,E,A,=B, C4 | G,,D, B,2 [CDF]4 | F,,C,F,G, A,4 | %45
 B,,F,A,B, [DA]2 F2 | A,,E,=B,C E4 | G,,D,B,D F2 D2 |1 A,,G,=B,D [A,^CE]4 :|2 A,,G,=B,D [A,^CE]4 |] %50
 D,A,DF A2 F2 | G,,D,A,B, F2 D2 | C,G,CD E2 C2 | F,CFG cCGF | B,DFA d4 | E,B,DE G4 | A,EGA e4 | %57
 A,EGA e2 E2 | D,,A,,F,A, D2 A,2 | E,,C,G,C EG,CG, | A,,E,G,A, ^CG,A,G, | F,,D,F,A, DF,A,F, | %62
 B,,F,A,B, D2 B,2 | G,,E,G,(B, B,4) | A,,E,G,A, E4 | A,,E,G,A, z4 | z4 !fermata![D,,A,,D,]4 |] %67

